src/lib/packages/icons/src/assets/filled/speaker.svg

<svg width="24" height="24" viewBox="0 0 24 24" fill="none" xmlns="http://www.w3.org/2000/svg">
<path d="M13.25 14.5C13.25 15.19 12.69 15.75 12 15.75C11.31 15.75 10.75 15.19 10.75 14.5C10.75 13.81 11.31 13.25 12 13.25C12.69 13.25 13.25 13.81 13.25 14.5ZM19 6V18C19 20 18 21 16 21H8C6 21 5 20 5 18V6C5 4 6 3 8 3H16C18 3 19 4 19 6ZM11 7C11 7.552 11.448 8 12 8C12.552 8 13 7.552 13 7C13 6.448 12.552 6 12 6C11.448 6 11 6.448 11 7ZM15.5 14.5C15.5 12.567 13.933 11 12 11C10.067 11 8.5 12.567 8.5 14.5C8.5 16.433 10.067 18 12 18C13.933 18 15.5 16.433 15.5 14.5Z" fill="currentColor"/>
</svg>

<svg xmlns="http://www.w3.org/2000/svg" width="24" height="24" fill="none"><path fill="currentColor" d="M13.25 14.5a1.25 1.25 0 1 1-2.5 0 1.25 1.25 0 0 1 2.5 0ZM19 6v12c0 2-1 3-3 3H8c-2 0-3-1-3-3V6c0-2 1-3 3-3h8c2 0 3 1 3 3Zm-8 1a1 1 0 1 0 2 0 1 1 0 0 0-2 0Zm4.5 7.5a3.5 3.5 0 1 0-7 0 3.5 3.5 0 0 0 7 0Z"/></svg>
